X:68
T:Schottis fr\aan Bylberg
R:Schottis
S:Andra L\aatboken
O:Sweden
A:Dalarna
M:2/4
L:1/8
Q:1/4=140
F:http://skandia-folkdance.org/spelmanslag/Blyberg.abc
K:D
%P:A
[V:1]"D"vD>FAF D>FAF | "G"G>ABA G2 G2 |
[V:2]vA,>DFD A,>DFD | B,>DGD [B,2D2] [B,2D2] |
[V:1]"A"A>cec A>cec |[1 "D"d>efe d2 d2 :|[2 "d"d2 dc d4 :|
[V:2] E>AcA E>AcA |[1 F>AdA [F2A2] [F2A2] :|[2 F2 FE [F4A4] :|
%P:B
[V:1]"D"vA2 f2 f>edc | "G"B2 g2 g>fed |
[V:2]vF2 d2 d>cBA | G2 B2 B>dcB |
[V:1][1 "A"c2 a2 a2 ^ga | "D"b>afd A4 :|[2c2 a2 a>gec | "D"d2 dc d4 :|
[V:2][1 A2 c2 c2 ec | d>cdA F4 :|[2 A2 c2 c>ecA | F2 FE F4 :|

